packages/core/src/svgs/tokens/branded/THALES.svg

<svg width="24" height="24" viewBox="0 0 24 24" fill="none" xmlns="http://www.w3.org/2000/svg">
<path d="M4.77661 9.21985C4.77639 10.543 5.13952 11.8407 5.82641 12.9714C6.51329 14.1022 7.49753 15.0226 8.67176 15.6322L8.6662 15.6432C8.67731 16.1878 9.13851 17.4825 10.2776 17.4825C11.1833 17.4825 11.4334 16.6601 11.4445 16.249V15.0931C11.4445 14.2763 10.8833 13.5762 10.6333 13.4541C9.64442 13.1348 8.79855 12.4793 8.24274 11.6014C7.68692 10.7234 7.45623 9.67856 7.59073 8.64821C7.72523 7.61788 8.21643 6.66721 8.97899 5.96137C9.74153 5.25554 10.7273 4.83915 11.7649 4.78454C12.8026 4.72991 13.8266 5.04054 14.659 5.66243C15.4915 6.28431 16.0797 7.17818 16.3217 8.18871C16.5636 9.19923 16.4438 10.2626 15.9833 11.1941C15.5226 12.1255 14.7504 12.8661 13.8004 13.2873C13.3448 13.5429 13.1115 14.293 13.1115 15.1932V18.6216C13.1003 18.7327 12.9781 18.955 12.8558 19.1717L12.6948 19.4662L12.6669 19.5218C12.5113 19.8384 12.4335 19.994 12.4335 20.433C12.4335 20.8998 12.7947 22 14.0727 22C15.3507 22 15.6286 20.6664 15.6286 20.433V20.3941C15.6286 20.1607 15.6286 19.7995 15.3952 19.4662L15.2118 19.2272C14.9951 18.9605 14.7784 18.6883 14.7784 18.3271V16.849C14.7896 16.5935 14.9617 16.11 15.1562 15.721C16.3164 15.1576 17.3044 14.2937 18.0178 13.2193C18.7313 12.1449 19.1441 10.899 19.2132 9.61114C19.2824 8.3233 19.0056 7.04043 18.4114 5.89573C17.8174 4.75104 16.9275 3.78627 15.8344 3.10168C14.7415 2.41707 13.4851 2.03759 12.1959 2.00265C10.9066 1.96771 9.63145 2.27858 8.50302 2.90296C7.37452 3.52736 6.43377 4.4425 5.77848 5.55333C5.12319 6.66417 4.77726 7.93019 4.77661 9.21985ZM10.0443 6.99729L14.2227 11.1646C13.634 11.667 12.8953 11.9602 12.1223 11.9982C11.3442 11.9807 10.604 11.6581 10.0614 11.0999C9.51878 10.5418 9.21729 9.79279 9.22185 9.01435C9.22185 7.98079 9.772 7.23621 10.0443 6.99729Z" fill="#1E1C57"/>
</svg>

<svg xmlns="http://www.w3.org/2000/svg" width="24" height="24" fill="none" viewBox="0 0 24 24">
    <path fill="#1E1C57" d="M4.777 9.22a7.22 7.22 0 0 0 3.895 6.412l-.006.011c.011.545.473 1.84 1.612 1.84.905 0 1.155-.823 1.166-1.234v-1.156c0-.817-.56-1.517-.81-1.639a4.446 4.446 0 1 1 3.166-.167c-.455.256-.689 1.006-.689 1.906v3.429c-.01.11-.133.333-.255.55l-.161.294-.028.056c-.156.316-.233.472-.233.911 0 .467.36 1.567 1.639 1.567s1.556-1.334 1.556-1.567v-.039c0-.233 0-.594-.234-.928l-.183-.239c-.217-.267-.434-.539-.434-.9V16.85c.012-.256.184-.739.378-1.128a7.222 7.222 0 0 0 .678-12.62A7.223 7.223 0 0 0 4.777 9.22m5.267-2.223 4.179 4.168a3.5 3.5 0 0 1-2.1.833 2.967 2.967 0 0 1-2.901-2.984c0-1.033.55-1.778.822-2.017"/>
</svg>
